assets/icons/icon-dark-theme.svg

<svg width="16" height="16" viewBox="0 0 16 16" fill="none" xmlns="http://www.w3.org/2000/svg">
<path fill-rule="evenodd" clip-rule="evenodd" d="M14.9084 10.3675C15.3159 10.1875 15.8017 10.5325 15.6317 10.9375C14.4717 13.7125 11.6884 15.6667 8.43839 15.6667C4.14586 15.6667 0.666687 12.2575 0.666687 8.05168C0.666687 4.51085 3.13336 1.53418 6.47419 0.681675C6.90752 0.571675 7.19169 1.08835 6.95502 1.46168C6.33657 2.43582 6.00875 3.56613 6.01002 4.72002C6.01002 8.13752 8.83669 10.9075 12.3242 10.9075C13.2137 10.909 14.0938 10.7251 14.9084 10.3675ZM10.5017 1.42584C10.2075 0.984175 10.7342 0.457505 11.1759 0.752505L11.9634 1.27751C12.2827 1.49048 12.6579 1.60414 13.0417 1.60414C13.4255 1.60414 13.8007 1.49048 14.12 1.27751L14.9067 0.752505C15.3492 0.457505 15.8759 0.984175 15.5809 1.42584L15.0559 2.21334C14.8429 2.53264 14.7292 2.90786 14.7292 3.29168C14.7292 3.67549 14.8429 4.05071 15.0559 4.37001L15.5809 5.15751C15.8759 5.59918 15.3492 6.12584 14.9075 5.83084L14.12 5.30584C13.8007 5.09287 13.4255 4.97922 13.0417 4.97922C12.6579 4.97922 12.2827 5.09287 11.9634 5.30584L11.1767 5.83084C10.735 6.12584 10.2075 5.59918 10.5017 5.15751L11.0267 4.37001C11.2397 4.05071 11.3533 3.67549 11.3533 3.29168C11.3533 2.90786 11.2397 2.53264 11.0267 2.21334L10.5017 1.42584Z" fill="#828FA3"/>
</svg>

<svg width="16" height="16" xmlns="http://www.w3.org/2000/svg"><path d="M6.474.682c.434-.11.718.406.481.78A6.067 6.067 0 0 0 6.01 4.72c0 3.418 2.827 6.187 6.314 6.187.89.002 1.77-.182 2.584-.54.408-.18.894.165.724.57-1.16 2.775-3.944 4.73-7.194 4.73-4.292 0-7.771-3.41-7.771-7.615 0-3.541 2.466-6.518 5.807-7.37Zm8.433.07c.442-.294.969.232.674.674l-.525.787a1.943 1.943 0 0 0 0 2.157l.525.788c.295.441-.232.968-.674.673l-.787-.525a1.943 1.943 0 0 0-2.157 0l-.786.525c-.442.295-.97-.232-.675-.673l.525-.788a1.943 1.943 0 0 0 0-2.157l-.525-.787c-.295-.442.232-.968.674-.673l.787.525a1.943 1.943 0 0 0 2.157 0Z" fill="#828FA3"/></svg>
